Origami/24x24/apps/gnome-mplayer.svg

<svg width="24" height="24" version="1" xmlns="http://www.w3.org/2000/svg">
 <path d="m3.5 3c-0.831 0-1.5 0.669-1.5 1.5v12.5h20v-12.5c0-0.831-0.669-1.5-1.5-1.5z" style="fill:#4bae4f"/>
 <path d="m3.5 3c-0.831 0-1.5 0.669-1.5 1.5v0.5c0-0.831 0.669-1.5 1.5-1.5h17c0.831 0 1.5 0.669 1.5 1.5v-0.5c0-0.831-0.669-1.5-1.5-1.5z" style="fill:#ffffff;opacity:.2"/>
 <path d="m2 17v2.5c0 0.831 0.669 1.5 1.5 1.5h17c0.831 0 1.5-0.669 1.5-1.5v-2.5z" style="fill:#cccccc"/>
 <rect x="2" y="17" width="20" height=".5" style="fill:#ffffff;opacity:.2"/>
 <rect x="14" y="18" width="6" height="1" rx=".462" ry=".464" style="fill:#999999"/>
 <rect x="4" y="18" width="10" height="1" rx=".476" ry=".5" style="fill:#4bae4f"/>
 <circle cx="14.5" cy="19" r="1.5" style="opacity:.2"/>
 <circle cx="14.5" cy="18.5" r="1.5" style="fill:#ffffff"/>
 <path d="m9.2957 6.5001c-0.2723-0.0054-0.3192 0.3448-0.2967 0.5976 2e-3 2.366-0.00351 4.7323 0.0025 7.0981 0.023945 0.28288 0.3278 0.3959 0.50056 0.22047 1.8459-1.211 4.5319-2.414 6.3759-3.6305 0.201-0.1675 0.124-0.5574-0.101-0.6385-1.846-1.2065-4.525-2.4196-6.3729-3.622-0.0345-0.0164-0.0716-0.0249-0.1087-0.025z" style="opacity:.2"/>
 <path d="m9.3016 6.0001c-0.2723-0.0054-0.3192 0.3448-0.2967 0.5976 2e-3 2.366-0.00351 4.7323 0.0025 7.0981 0.023945 0.28288 0.3278 0.3959 0.50056 0.22047 1.846-1.211 4.532-2.414 6.376-3.6305 0.201-0.1675 0.124-0.5574-0.101-0.6385-1.846-1.2065-4.525-2.4196-6.3729-3.622-0.0346-0.0164-0.0717-0.0249-0.1088-0.025z" style="fill:#ffffff"/>
 <path d="m2 19.5v0.5c0 0.831 0.669 1.5 1.5 1.5h17c0.831 0 1.5-0.669 1.5-1.5v-0.5c0 0.831-0.669 1.5-1.5 1.5h-17c-0.831 0-1.5-0.669-1.5-1.5z" style="opacity:.2"/>
</svg>

<svg xmlns="http://www.w3.org/2000/svg" width="24" height="24" version="1">
 <path style="fill:#4bae4f" d="M 3.5,3 C 2.669,3 2,3.669 2,4.5 V 17 H 22 V 4.5 C 22,3.669 21.331,3 20.5,3 Z"/>
 <path style="opacity:0.2;fill:#ffffff" d="M 3.5,3 C 2.669,3 2,3.669 2,4.5 V 5 C 2,4.169 2.669,3.5 3.5,3.5 h 17 C 21.331,3.5 22,4.169 22,5 V 4.5 C 22,3.669 21.331,3 20.5,3 Z"/>
 <path style="fill:#cccccc" d="m 2,17 v 2.5 C 2,20.331 2.669,21 3.5,21 h 17 C 21.331,21 22,20.331 22,19.5 V 17 Z"/>
 <rect style="fill:#ffffff;opacity:0.2" width="20" height=".5" x="2" y="17"/>
 <rect style="fill:#999999" width="6" height="1" x="14" y="18" rx=".462" ry=".464"/>
 <rect style="fill:#4bae4f" width="10" height="1" x="4" y="18" rx=".476" ry=".5"/>
 <circle style="opacity:0.2" cx="14.5" cy="19" r="1.5"/>
 <circle style="fill:#ffffff" cx="14.5" cy="18.5" r="1.5"/>
 <path style="opacity:0.2" d="M 9.2957,6.5001 C 9.0234,6.4947 8.9765,6.8449 8.999,7.0977 c 0.002,2.366 -0.00351,4.7323 0.0025,7.0981 0.023945,0.28288 0.3278,0.3959 0.50056,0.22047 1.8459,-1.211 4.5319,-2.414 6.3759,-3.6305 0.201,-0.1675 0.124,-0.5574 -0.101,-0.6385 -1.846,-1.2065 -4.525,-2.4196 -6.3729,-3.622 -0.0345,-0.0164 -0.0716,-0.0249 -0.1087,-0.025 z"/>
 <path style="fill:#ffffff" d="M 9.3016,6.0001 C 9.0293,5.9947 8.9824,6.3449 9.0049,6.5977 c 0.002,2.366 -0.00351,4.7323 0.0025,7.0981 0.023945,0.28288 0.3278,0.3959 0.50056,0.22047 1.846,-1.211 4.532,-2.414 6.376,-3.6305 0.201,-0.1675 0.124,-0.5574 -0.101,-0.6385 -1.846,-1.2065 -4.525,-2.4196 -6.3729,-3.622 -0.0346,-0.0164 -0.0717,-0.0249 -0.1088,-0.025 z"/>
 <path style="opacity:0.2" d="M 2,19.5 V 20 c 0,0.831 0.669,1.5 1.5,1.5 h 17 C 21.331,21.5 22,20.831 22,20 V 19.5 C 22,20.331 21.331,21 20.5,21 H 3.5 C 2.669,21 2,20.331 2,19.5 Z"/>
</svg>
